!!!!SEGMENT: pl-wn--mus-iii-601--003-003_janiewicz-feliks--iiie-trio-rondeau-allegro.krn
!!!cenid: 17xx:2395
!!!COM: Janiewicz, Feliks
!!!COM-rismID: pe30011012
!!!CDT: 1762-1848
!!!CNT: Polish
!!!OPR: IIIe Trio
!!!OTL: Rondeau/Allegro
!!!OMV: 003
!!!PDT:
!!!AGN:
!!!YEC: Copyright 2022 Narodowy Instytut Fryderyka Chopina (https://polishscores.org)
!!!YEM: License CC-BY-4.0 (https://creativecommons.org/licenses/by/4.0)
!!!SMS-siglum: PL-Wn
!!!SMS-shelfmark: Mus.III.601
!!!SMS-shelfwork: 003-003 M
!!!SMS-variant:
!!!SMS-altvar:
!!!NIFC-rismSourceID: 990069598
!!!NIFC-rismChildID: 990069598
!!!NIFC-islandoraID: none
!!!URL-pdf-islandora:
!!!URL-scan: https://polona2.pl/item/six-trios-pour-deux-violons-basse,MTAxMDA3MzY2/0/#item @EN{Scan on Polona} @PL{Skany w portalu Polona}
!!!IIIF: https://polona2.pl/iiif/item/MTAxMDA3MzY2/manifest.json
!!!ONB-nifc: UWAGA: źródło zawiera 6 Trio na 2 skrzypiec i wiolonczelę. Violino Primo (od skanu 3), Violino Secondo (od skanu 37), Basso (od skanu 61). Basso to partia wiolonczeli. Części Ie Trio: 1. Allegro, 2. Andante, 3. Rondeau/Allegro
!!!AIN: 1 cello 2 violn
!!!key: E
!!!OMD:
!!!OMD-mod: Allegro alla pollacca
**kern	**dynam	**kern	**dynam	**kern	**dynam
*part3	*	*part2	*	*part1	*
*staff3	*	*staff2	*	*staff1	*
*I"BASSO	*	*I"VIOLINO SECONDO	*	*I"VIOLINO PRIMO	*
*mI"Violoncello	*	*mI"Violino II	*	*mI"Violino I	*
*I'vlc	*	*I'vl 2	*	*I'vl 1	*
*Icello	*	*Ivioln	*	*Ivioln	*
*ICstr	*	*ICstr	*	*ICstr	*
*clefF4	*	*clefG2	*	*clefG2	*
*k[f#c#g#d#]	*	*k[f#c#g#d#]	*	*k[f#c#g#d#]	*
*E:	*	*E:	*	*E:	*
*M3/8	*	*M3/8	*	*M3/8	*
=1	=1	=1	=1	=1	=1
*xywh-#69:502,1748,3341,320	*	*xywh-#48:635,2335,3398,422	*	*xywh-#18:431,1984,3405,376	*
!	!	!	!	!LO:TX:a:t=alla Polaca:mod=	!
!LO:TX:a:t=Rondo\nAllegro.:mod=	!	!LO:TX:a:t=Rondo\nAllegro.:mod=	!	!LO:TX:a:t=Rondeau\nAllegro:mod=	!
[4.EE/	p	8g#L 8B'/	p	8gg#`\L	p
.	.	8g# 8B'/	.	(16gg#\L	.
.	.	.	.	16ff#\)	.
.	.	8g#J 8B'/	.	16gg#`\	.
.	.	.	.	16aa`\JJ	.
=2	=2	=2	=2	=2	=2
4.EE/_	.	8g#L 8B'/	.	8bb`\L	.
.	.	8g# 8B'/	.	(16bb\L	.
.	.	.	.	16aa#X\)	.
.	.	8g#J 8B'/	.	16bb`\	.
.	.	.	.	16gg#`\JJ	.
=3	=3	=3	=3	=3	=3
*	*	*^	*	*	*
*	*	*	*xywh-#48:635,2335,3398,422	*	*	*
4.EE/_	.	8f#/L	4.B\	.	8aan`\L	.
.	.	8f#/	.	.	(16aa\L	.
.	.	.	.	.	16gg#\)	.
.	.	8a/J	.	.	16aa`\	.
.	.	.	.	.	16ff#`\JJ	.
*	*	*v	*v	*	*	*
=4	=4	=4	=4	=4	=4
4.EE/_	.	16e/LL	.	(16gg#\LL	.
.	.	16B/	.	16bb\JJ)	.
!	!	!	!	!	!LO:MO:mod=!null:null
!	!	!	!	!	!LO:DY:t=rinf
.	.	16d#/	.	4ff#\	rfz
.	.	16c#/	.	.	.
.	.	16d#/	.	.	.
.	.	16B/JJ	.	.	.
=5	=5	=5	=5	=5	=5
4.EE/_	.	8e/L	.	8gg#`\L	.
.	.	8g# 8B/	.	(16gg#\L	.
.	.	.	.	16ff#\)	.
.	.	8g#J 8B/	.	16gg#`\	.
.	.	.	.	16aa`\JJ	.
=6	=6	=6	=6	=6	=6
4.EE/_	.	8g#L 8B/	.	8bb`\L	.
.	.	8g# 8B/	.	(16bb\L	.
.	.	.	.	16aa#X\)	.
.	.	8g#J 8B/	.	16bb`\	.
.	.	.	.	16gg#`\JJ	.
=7	=7	=7	=7	=7	=7
*	*	*^	*	*	*
4.EE/]	.	8f#/L	4.B\	.	8aan`\L	.
.	.	8f#/	.	.	(16aa\L	.
.	.	.	.	.	16gg#\)	.
.	.	8a/J	.	.	16aa`\	.
.	.	.	.	.	16ff#`\JJ	.
*	*	*v	*v	*	*	*
=8	=8	=8	=8	=8	=8
!	!LO:MO:mod=!null:null	!	!	!	!
!	!LO:DY:t=rinf	!	!	!	!
!	!LO:MO:mod=!null:null	!	!	!	!
8EE/	rfz	8g# 8B/	.	(16ee\LL	.
.	.	.	.	16gg#\JJ)	.
!	!	!	!	!	!LO:MO:mod=!null:null
!	!	!	!	!	!LO:DY:t=rinf
!	!LO:DY:t= :mod=%s	!	!LO:DY:t= :mod=%s	!	!
!	!LO:MO:mod=!LO&colon;DY&colon;ed=	!	!LO:MO:mod=!LO&colon;DY&colon;ed=brack	!	!
!	!null	!	!null	!	!
4EE/	rfz	4g# 4B/	rfz	4e/	rfz
!	!	!LO:LB:g=original	!	!LO:LB:g=original	!
=9	=9	=9	=9	=9	=9
*	*	*xywh-#48:616,2690,3378,402	*	*	*
!LO:TX:t=P:problem:mixed beam	!	!	!	!	!
!	!LO:DY:t= :mod=%s	!	!	!	!
!	!LO:MO:mod=!LO&colon;DY&colon;ed=brack	!	!	!	!
!	!null	!	!	!	!
*	*	*	*	*xywh-#18:422,2268,3439,330	*
8EE\L	p	4g# 4B/	p	16.gg#\LL	.
.	.	.	.	32aa\K	.
8E/	.	.	.	16.gg#\	.
.	.	.	.	32ff#\K	.
8E/J	.	8g# 8B/	.	16.gg#\	.
.	.	.	.	32aa\JJk	.
=10	=10	=10	=10	=10	=10
!LO:TX:t=P:problem:mixed beam	!	!	!	!	!
8EE\L	.	4g# 4B/	.	8bb\L	.
8E/	.	.	.	16.bb\L	.
.	.	.	.	32aa#X\K	.
8E/J	.	8g# 8B/	.	16.bb\	.
.	.	.	.	32gg#\JJk	.
=11	=11	=11	=11	=11	=11
!LO:TX:t=P:problem:mixed beam	!	!	!	!	!
8EE\L	.	4f# 4B/	.	8aan\L	.
8E/	.	.	.	16.aa\L	.
.	.	.	.	32gg#\K	.
8E/J	.	8a 8B/	.	16.aa\	.
.	.	.	.	32ff#\JJk	.
=12	=12	=12	=12	=12	=12
!LO:TX:t=P:problem:mixed beam	!	!	!	!	!
8EE\L	.	8g# 8B/	.	16.gg#\LL	.
.	.	.	.	32bb\JJk	.
!	!	!	!LO:MO:mod=!null:null	!	!
!	!	!	!LO:DY:t=rinf	!	!
8E/	.	4a 4B/	rfz	4ff# 4b\	.
8E/J	.	.	.	.	.
=13	=13	=13	=13	=13	=13
!LO:TX:t=P:problem:mixed beam	!	!	!	!	!
8EE\L	.	4g# 4B/	p	8gg#\L	.
8E/	.	.	.	16gg#\L	.
.	.	.	.	16ff#\	.
8E/J	.	8g# 8B/	.	16gg#\	.
.	.	.	.	16aa\JJ	.
=14	=14	=14	=14	=14	=14
!LO:TX:t=P:problem:mixed beam	!	!	!	!	!
8EE\L	.	4g# 4B/	.	8bb\L	.
8E/	.	.	.	16bb\L	.
.	.	.	.	16aa#X\	.
8E/J	.	8g# 8B/	.	16bb\	.
.	.	.	.	16gg#\JJ	.
=15	=15	=15	=15	=15	=15
!LO:TX:t=P:problem:mixed beam	!	!	!	!	!
8EE\L	.	4f# 4B/	.	8aan\L	.
8E/	.	.	.	16aa\L	.
.	.	.	.	16gg#\	.
8E/J	.	8a 8B/	.	16aa\	.
.	.	.	.	16ff#\JJ	.
=16	=16	=16	=16	=16	=16
!	!LO:MO:mod=!null:null	!	!	!	!
!	!LO:DY:t=rinf	!	!	!	!
!	!LO:MO:mod=!null:null	!	!	!	!
8EE/	rfz	8g# 8B/	.	16ee\LL	.
.	.	.	.	16gg#\JJ	.
!	!LO:DY:t= :mod=%s	!	!	!	!
!	!LO:MO:mod=!LO&colon;DY&colon;ed=	!	!	!	!
!	!null	!	!	!	!
4E\	rfz	4g# 4B/	.	4e/	.
!LO:LB:g=original	!	!	!	!	!
.	.	.	.	.	.
=17	=17	=17	=17	=17	=17
*xywh-#69:481,2008,3387,346	*	*	*	*	*
4.BB/	p	8f#L 8B/	.	(16dd#\LL	.
.	.	.	.	16ff#\)	.
.	.	8a 8B/	.	(16bb\	.
.	.	.	.	16aa\)	.
.	.	8aJ 8B/	.	16gg#`\	.
.	.	.	.	16ff#`\JJ	.
=18	=18	=18	=18	=18	=18
4.EE/	.	8g#L 8B/	.	8gg#`\L	.
.	.	8g# 8B/	.	(16bb\L	.
.	.	.	.	16aa#X\)	.
.	.	8g#J 8B/	.	16bb`\	.
.	.	.	.	16gg#`\JJ	.
!	!	!	!	!LO:LB:g=original	!
=19	=19	=19	=19	=19	=19
*	*	*	*	*xywh-#18:427,2547,3418,343	*
4.BB/	.	8aL 8B/	.	8ff#`\L	.
.	.	8a 8B/	.	(16bb\L	.
.	.	.	.	16aan\)	.
.	.	8aJ 8B/	.	16gg#`\	.
.	.	.	.	16ff#`\JJ	.
=20	=20	=20	=20	=20	=20
8r	.	8g# 8B/	.	(16gg#\LL	.
.	.	.	.	16bb\JJ)	.
!	!LO:MO:mod=!null:null	!	!LO:MO:mod=!null:null	!	!LO:MO:mod=!null:null
!	!LO:DY:t=rinf	!	!LO:DY:t=rinf	!	!LO:DY:t=rinf
4BB/	rfz	4a 4B/	rfz	4ff# 4b\	rfz
=21	=21	=21	=21	=21	=21
*	*	*^	*	*	*
*	*	*	*xywh-#48:616,2690,3378,402	*	*	*
[4.E\	p	8g#/L	4.B\	p	8gg#`\L	.
.	.	8g#/	.	.	(16gg#\L	.
.	.	.	.	.	16ff#\)	.
.	.	8g#/J	.	.	16gg#`\	.
!	!	!LO:LB:g=original	!	!	!	!
.	.	.	.	.	16aa`\JJ	.
=22	=22	=22	=22	=22	=22	=22
*	*	*xywh-#48:585,3011,3408,397	*xywh-#48:585,3011,3408,397	*	*	*
4.E\_	.	8g#/L	4.B\	.	8bb`\L	.
.	.	8g#/	.	.	(16bb\L	.
.	.	.	.	.	16aa#X\)	.
.	.	8g#/J	.	.	16bb`\	.
.	.	.	.	.	16gg#`\JJ	.
*	*	*v	*v	*	*	*
=23	=23	=23	=23	=23	=23
4.E\]	.	8f#L 8B/	.	8aan`\L	.
.	.	8f# 8B/	.	(16aa\L	.
.	.	.	.	16gg#\)	.
.	.	8aJ 8B/	.	16aa`\	.
.	.	.	.	16ff#`\JJ	.
=24	=24	=24	=24	=24	=24
!	!LO:MO:mod=!null:null	!	!	!	!
!	!LO:DY:t=rinf	!	!	!	!
!	!LO:MO:mod=!null:null	!	!	!	!
8E\	rfz	8g# 8B/	.	(16ee\LL	.
.	.	.	.	16gg#\JJ)	.
!	!LO:DY:t= :mod=%s	!	!LO:MO:mod=!null:null	!	!
!	!LO:MO:mod=!LO&colon;DY&colon;ed=	!	!LO:DY:t=rinf	!	!
!	!null	!	!	!	!
4EE/	rfz	4g# 4B/	rfz	4e/	.
=25	=25	=25	=25	=25	=25
!LO:TX:t=P:problem:mixed beam	!	!	!	!	!
8BB/L	p	8f#/	p	16.dd#\LL	.
.	.	.	.	32ff#\K	.
8B\	.	4d#/	.	16.bb\	.
.	.	.	.	32aa\K	.
8B\J	.	.	.	16.gg#\	.
.	.	.	.	32ff#\JJk	.
=26	=26	=26	=26	=26	=26
!LO:TX:t=P:problem:mixed beam	!	!	!	!	!
8E\L	.	8g# 8B/	.	16.gg#\LL	.
.	.	.	.	32aa\K	.
8EE/	.	4e 4B/	.	16.bb\	.
.	.	.	.	32aa#X\K	.
8EE/J	.	.	.	16.bb\	.
.	.	.	.	32gg#\JJk	.
=27	=27	=27	=27	=27	=27
!LO:TX:t=P:problem:mixed beam	!	!	!	!	!
8BB/L	.	8f#/	.	8ff#\L	.
8B\	.	4d#/	.	16.bb\L	.
.	.	.	.	32aan\K	.
8B\J	.	.	.	16.gg#\	.
.	.	.	.	32ff#\JJk	.
=28	=28	=28	=28	=28	=28
!LO:TX:t=P:problem:mixed beam	!	!	!	!	!
8e\L	.	8e/	.	16gg#\LL	.
.	.	.	.	16bb\JJ	.
!	!	!	!	!	!LO:MO:mod=!null:null
!	!	!	!	!	!LO:DY:t=rinf
8B\	.	4d#/	.	4ff# 4b\	rfz
!	!	!	!	!LO:LB:g=original	!
8BB/J	.	.	.	.	.
=29	=29	=29	=29	=29	=29
!	!	!	!LO:MO:mod=!null:null	!	!
!LO:TX:t=P:problem:mixed beam	!	!	!LO:DY:t=rinf	!	!
*	*	*	*	*xywh-#18:444,2844,3397,355	*
8EE/L	f	16g#/LL	rfz	16.gg#\LL	.
.	.	16B/	.	.	.
.	.	.	.	32ff#\K	.
8E\	.	16g#/	.	16.ee\	.
.	.	16B/	.	.	.
.	.	.	.	32ff#\K	.
8E\J	.	16g#/	.	16.gg#\	.
.	.	16B/JJ	.	.	.
.	.	.	.	32aa\JJk	.
=30	=30	=30	=30	=30	=30
!LO:TX:t=P:problem:mixed beam	!	!	!	!	!
8EE/L	.	16g#/LL	.	16.bb\LL	.
.	.	16B/	.	.	.
.	.	.	.	32ccc#\K	.
8E\	.	16g#/	.	16.ddd#\	.
.	.	16B/	.	.	.
.	.	.	.	32eee\K	.
8E\J	.	16g#/	.	16.bb\	.
.	.	16B/JJ	.	.	.
.	.	.	.	32gg#\JJk	.
=31	=31	=31	=31	=31	=31
!LO:TX:t=P:problem:mixed beam	!	!	!	!	!
.	.	.	.	8qqbb/	.
8EE/L	.	16f#/LL	.	8aa\L	.
.	.	16B/	.	.	.
8E\	.	16f#/	.	(16aa\L	.
.	.	16B/	.	16gg#\)	.
8E\J	.	16a/	.	16aa`\	.
.	.	16B/JJ	.	16ff#`\JJ	.
!	!	!LO:LB:g=original	!	!	!
=32	=32	=32	=32	=32	=32
*	*	*xywh-#48:600,3337,3449,371	*	*	*
!	!LO:MO:mod=!null:null	!	!	!	!
!	!LO:DY:t=rinf	!	!	!	!
!	!LO:MO:mod=!null:null	!	!	!	!
8EE/	rfz	8g# 8B/	.	(16ee\LL	.
.	.	.	.	16gg#\JJ)	.
!	!LO:DY:t= :mod=%s	!	!LO:DY:t= :mod=%s	!	!
!	!LO:MO:mod=!LO&colon;DY&colon;ed=	!	!LO:MO:mod=!LO&colon;DY&colon;ed=brack	!	!
!	!null	!	!null	!	!
4E\	rfz	4g# 4B/	rfz	4e/	.
=33	=33	=33	=33	=33	=33
4E\	p	(16g#/LL	p	(16b\LL	.
.	.	16b/)	.	16ee\)	.
.	.	(16g#/	.	(16gg#\	.
.	.	16b/)	.	16ff#\)	.
8r	.	(16g#/	.	(16ee\	.
.	.	16b/JJ)	.	16dd#\JJ)	.
=34	=34	=34	=34	=34	=34
4E\	.	16g#/LL	.	16ee\LL	.
.	.	16b/	.	16gg#\JJ	.
.	.	16g#/	.	4b\	.
.	.	16b/	.	.	.
8r	.	16g#/	.	.	.
.	.	16b/JJ	.	.	.
=35	=35	=35	=35	=35	=35
4E\	.	16a/LL	.	16cc#\LL	.
.	.	16e/	.	16dd#\	.
.	.	16a/	.	16ee\	.
.	.	16e/	.	16dd#\	.
8r	.	16a/	.	16ee\	.
!LO:LB:g=original	!	!	!	!	!
.	.	16e/JJ	.	16cc#\JJ	.
=36	=36	=36	=36	=36	=36
*xywh-#69:461,2298,3361,336	*	*	*	*	*
!LO:TX:t=P:problem:mixed beam	!	!	!	!	!
.	.	.	.	8qqdd#/	.
8E\L	.	16a/LL	.	16cc#\LL	.
.	.	16e/	.	16b\JJ	.
8EE/	.	16g#/	.	4b\	.
.	.	16f#/	.	.	.
8E\J	.	16g#/	.	.	.
.	.	16e/JJ	.	.	.
=37	=37	=37	=37	=37	=37
4E\	.	16c#/LL	.	16.a#X\LL	.
.	.	16f#/	.	.	.
.	.	.	.	(32b\K	.
.	.	16A#X/	.	16.cc#\)	.
.	.	16f#/	.	.	.
.	.	.	.	(32dd#\K	.
8E\	.	16c#/	.	16.ee\)	.
.	.	16A#/JJ	.	.	.
.	.	.	.	[32gg#\JJk	.
!	!	!	!	!LO:LB:g=original	!
=38	=38	=38	=38	=38	=38
*	*	*	*	*xywh-#18:389,3127,3456,347	*
4D#\	.	16B/LL	.	8.gg#\L]	.
.	.	16f#/	.	.	.
.	.	16c#/	.	.	.
.	.	.	.	8qqgg#/	.
.	.	16f#/	.	16ff#\L	.
8BB/	.	16d#/	.	16ee\	.
.	.	16f#/JJ	.	16dd#\JJ	.
!	!	!LO:LB:g=original	!	!	!
=39	=39	=39	=39	=39	=39
*	*	*xywh-#48:555,3633,3541,463	*	*	*
4E\	.	16e/LL	.	(16cc#\LL	.
.	.	16c#/	.	16ee\	.
.	.	16e/	.	16gg#\	.
.	.	16c#/	.	16ee\	.
8E#X\	.	16B/	.	16cc#\	.
.	.	16c#/JJ	.	16b\JJ)	.
=40	=40	=40	=40	=40	=40
8F#\	.	16f#/LL	.	(16b/LL	.
.	.	16c#/	.	16a#X/)	.
4FF#/	.	16A#X/	.	(16cc#/	.
.	.	16c#/	.	16a#/J)	.
.	.	16A#/	.	8f#`/J	.
.	.	16c#/JJ	.	.	.
=41	=41	=41	=41	=41	=41
4BB/	.	4d#/	.	24ff#\LL	.
.	.	.	.	24dd#\	.
.	.	.	.	24b\JJ	.
.	.	.	.	24f#\LL	.
.	.	.	.	24b\	.
.	.	.	.	24dd#\JJ	.
8BB/	.	8d#/	.	24ff#\LL	.
.	.	.	.	24dd#\	.
.	.	.	.	24b\JJ	.
=42	=42	=42	=42	=42	=42
4AA#X/	.	4c#/	.	24ee\LL	.
.	.	.	.	24cc#\	.
.	.	.	.	24a#X\JJ	.
.	.	.	.	24f#/LL	.
.	.	.	.	24g#/	.
.	.	.	.	24e#X/JJ	.
8AA#/	.	8c#/	.	24f#/LL	.
.	.	.	.	24g#/	.
.	.	.	.	24en/JJ	.
=43	=43	=43	=43	=43	=43
4BB/	.	4d#/	.	24d#/LL	.
.	.	.	.	24f#/	.
.	.	.	.	24b/JJ	.
.	.	.	.	24dd#\LL	.
.	.	.	.	24cc#\	.
.	.	.	.	24b\JJ	.
8BB/	.	8d#/	.	24ff#\LL	.
.	.	.	.	24dd#\	.
.	.	.	.	24b\JJ	.
=44	=44	=44	=44	=44	=44
4AA#X/	.	4c#/	.	24ee\LL	.
.	.	.	.	24cc#\	.
.	.	.	.	24a#X\JJ	.
.	.	.	.	24f#/LL	.
.	.	.	.	24g#/	.
.	.	.	.	24e#X/JJ	.
8AA#/	.	8c#/	.	24f#/LL	.
.	.	.	.	24g#/	.
.	.	.	.	24en/JJ	.
!	!	!	!	!LO:LB:g=original	!
=45	=45	=45	=45	=45	=45
*	*	*	*	*xywh-#18:422,3432,3422,326	*
4GG#/	.	4d#/	.	24d#/LL	.
.	.	.	.	24B/	.
.	.	.	.	24d#/JJ	.
.	.	.	.	24f#/LL	.
.	.	.	.	24d#/	.
.	.	.	.	24f#/JJ	.
8r	.	8r	.	24b/LL	.
.	.	.	.	24f#/	.
.	.	.	.	24b/JJ	.
=46	=46	=46	=46	=46	=46
!LO:MO:mod=!null:null	!	!LO:MO:mod=!null:null	!	!	!
!LO:TX:a:t=I	!	!LO:TX:a:t=I	!	!	!
4.r	.	4.r	.	24dd#\LL	.
.	.	.	.	24b\	.
.	.	.	.	24dd#\JJ	.
.	.	.	.	24ff#\LL	.
.	.	.	.	24dd#\	.
.	.	.	.	24ff#\JJ	.
.	.	.	.	24aan\LL	.
.	.	.	.	24ff#\	.
.	.	.	.	24dd#\JJ	.
=47	=47	=47	=47	=47	=47
!	!LO:MO:mod=!LO&colon;DY&colon;ed=brack	!	!LO:MO:mod=!null:null	!	!
!	!LO:MO:mod=!LO&colon;DY&colon;ed=brack	!	!LO:DY:t=rinf	!	!
!	!null	!	!	!	!
4.D#\	rfz	4a 4B/	rfz	24aa\LL	.
.	.	.	.	24ff#\	.
.	.	.	.	24dd#\JJ	.
.	.	.	.	24aa\LL	.
.	.	.	.	24ff#\	.
.	.	.	.	24dd#\JJ	.
.	.	8f# 8B/	.	24b\LL	.
.	.	.	.	24cc#\	.
.	.	.	.	24a\JJ	.
=48	=48	=48	=48	=48	=48
4E\	.	4g# 4B/	.	24g#/LL	.
.	.	.	.	24e/	.
.	.	.	.	24g#/JJ	.
.	.	.	.	24b/LL	.
.	.	.	.	24g#/	.
.	.	.	.	24b/JJ	.
8r	.	8r	.	24ee\LL	.
.	.	.	.	24b\	.
.	.	.	.	24ee\JJ	.
=49	=49	=49	=49	=49	=49
4EE/	.	4e 4B/	.	24gg#\LL	.
.	.	.	.	24ee\	.
.	.	.	.	24b\JJ	.
.	.	.	.	24g#/LL	.
.	.	.	.	24e/	.
.	.	.	.	24g#/JJ	.
8r	.	8r	.	24b\LL	.
.	.	.	.	24ee\	.
.	.	.	.	24gg#\JJ	.
=50	=50	=50	=50	=50	=50
4F#\	.	4d#/	.	[8ff#\L	.
.	.	.	.	16ff#\L]	.
.	.	.	.	(16gg#\	.
8r	.	8c#X/	.	16ee#X\	.
!	!	!LO:LB:g=original	!	!	!
.	.	.	.	16gg#\JJ)	.
=51	=51	=51	=51	=51	=51
*	*	*xywh-#48:585,3994,3474,371	*	*	*
4F#\	.	4d#/	.	[8ff#\L	.
.	.	.	.	16ff#\L]	.
.	.	.	.	(16gg#\	.
8r	.	8c#X/	.	16ee#X\	.
.	.	.	.	16gg#\JJ)	.
!	!	!	!	!LO:LB:g=original	!
=52	=52	=52	=52	=52	=52
*	*	*	*	*xywh-#18:409,3745,3426,338	*
8F#\L	.	8d#/L	.	[8ff#\L	.
8D#\	.	8B/	.	16ff#\L]	.
.	.	.	.	(16gg#\	.
8E\J	.	8g#/J	.	16een\	.
.	.	.	.	16cc#\JJ)	.
=53	=53	=53	=53	=53	=53
4F#\	.	4d#/	.	[8b\L	.
.	.	.	.	16b\L]	.
.	.	.	.	(16dd#\	.
8FF#/	.	8e/	.	16cc#\	.
.	.	.	.	16a#X\JJ)	.
=54	=54	=54	=54	=54	=54
!	!	!	!	!	!LO:DY:rj
4.BB/	p	8d#/L	p	16.b\LL	p
!LO:LB:g=original	!	!	!	!	!
.	.	.	.	32dd#\K	.
.	.	8f#/	.	16.f#\	.
.	.	.	.	32dd#\K	.
.	.	8d#/J	.	16.b\	.
.	.	.	.	32dd#\JJk	.
=55	=55	=55	=55	=55	=55
*xywh-#69:440,2599,3371,305	*	*	*	*	*
4.AA#X/	.	8e/L	.	16.cc#\LL	.
.	.	.	.	32ee\K	.
.	.	16c#/L	.	16.f#\	.
.	.	16A#X/	.	.	.
.	.	.	.	32ee\K	.
.	.	16B/	.	16.dd#\	.
.	.	16c#/JJ	.	.	.
.	.	.	.	32cc#\JJk	.
=56	=56	=56	=56	=56	=56
4.BB/	.	8d#/L	.	16.b\LL	.
.	.	.	.	32dd#\K	.
.	.	8f#/	.	16.f#\	.
.	.	.	.	32dd#\K	.
.	.	8d#/J	.	16.b\	.
.	.	.	.	32dd#\JJk	.
=57	=57	=57	=57	=57	=57
4.FF#/	.	16e/LL	.	16.cc#\LL	.
.	.	16d#/	.	.	.
.	.	.	.	32a#X\JJk	.
.	.	16c#/	.	4f#/	.
.	.	16d#/	.	.	.
.	.	16e/	.	.	.
.	.	16c#/JJ	.	.	.
=58	=58	=58	=58	=58	=58
4.BB/	.	8d#/L	.	16.b\LL	.
.	.	.	.	32dd#\K	.
.	.	8f#/	.	16.f#\	.
.	.	.	.	32dd#\K	.
.	.	8d#/J	.	16.b\	.
.	.	.	.	32dd#\JJk	.
=59	=59	=59	=59	=59	=59
4.AA#X/	.	8e/L	.	16.cc#\LL	.
.	.	.	.	32ee\K	.
.	.	16c#/L	.	16.f#\	.
.	.	16A#X/	.	.	.
.	.	.	.	32ee\K	.
.	.	16B/	.	16.dd#\	.
.	.	16c#/JJ	.	.	.
.	.	.	.	32cc#\JJk	.
!	!	!	!	!LO:LB:g=original	!
=60	=60	=60	=60	=60	=60
*	*	*	*	*xywh-#18:409,4007,3439,343	*
4.BB/	.	8d#/L	.	16.b\LL	.
.	.	.	.	32dd#\K	.
.	.	8f#/	.	16.f#\	.
.	.	.	.	32dd#\K	.
.	.	8d#/J	.	16.b\	.
!	!	!LO:LB:g=original	!	!	!
.	.	.	.	32dd#\JJk	.
=61	=61	=61	=61	=61	=61
*	*	*xywh-#48:616,4305,3418,377	*	*	*
8FF#/	.	16A#X/LL	.	16.cc#\LL	.
.	.	16c#/JJ	.	.	.
.	.	.	.	32a#X\JJk	.
4F#\	.	4f#/	.	4f#/	.
=62	=62	=62	=62	=62	=62
*	*	*^	*	*	*
!	!	!	!	!	!	!LO:MO:mod=!null:null
!	!	!	!	!	!	!LO:DY:t=rinf:rj
*	*	*	*xywh-#48:616,4305,3418,377	*	*	*
4E\	.	4g#/	4.B/	.	24gg#\LL	rfz
.	.	.	.	.	24ee\	.
.	.	.	.	.	24b\JJ	.
.	.	.	.	.	24g#/LL	.
.	.	.	.	.	24e/	.
.	.	.	.	.	24g#/JJ	.
8E\	.	8g#/	.	.	24b\LL	.
.	.	.	.	.	24ee\	.
.	.	.	.	.	24gg#\JJ	.
=63	=63	=63	=63	=63	=63	=63
4D#\	.	4f#/	4.B/	.	24ff#\LL	.
.	.	.	.	.	24dd#\	.
.	.	.	.	.	24b\JJ	.
.	.	.	.	.	24bb\LL	.
.	.	.	.	.	24ff#\	.
.	.	.	.	.	24dd#\JJ	.
8D#\	.	8f#/	.	.	24ff#\LL	.
.	.	.	.	.	24dd#\	.
.	.	.	.	.	24b\JJ	.
*	*	*v	*v	*	*	*
=64	=64	=64	=64	=64	=64
4.E\	p	4.g# 4.B/	p	24gg#\LL	.
.	.	.	.	24ee\	.
.	.	.	.	24b\JJ	.
.	.	.	.	24g#/LL	.
.	.	.	.	24e/	.
.	.	.	.	24g#/JJ	.
.	.	.	.	24b\LL	.
.	.	.	.	24ee\	.
.	.	.	.	24gg#\JJ	.
=65	=65	=65	=65	=65	=65
4.D#\	.	4.f# 4.B/	.	24ff#\LL	.
.	.	.	.	24dd#\	.
.	.	.	.	24b\JJ	.
.	.	.	.	24bb\LL	.
.	.	.	.	24ff#\	.
.	.	.	.	24dd#\JJ	.
.	.	.	.	24ff#\LL	.
.	.	.	.	24dd#\	.
.	.	.	.	24b\JJ	.
=66	=66	=66	=66	=66	=66
!LO:TX:t=P:problem:mixed beam	!	!	!	!	!
8E\L	pp	8g#/L	pp	24cc#\LL	.
.	.	.	.	24ee\	.
.	.	.	.	24gg#\JJ	.
8F#\	.	8f#/	.	24ff#\LL	.
.	.	.	.	24dd#\	.
.	.	.	.	24b\JJ	.
8FF#/J	.	8f#/J	.	24ee\LL	.
.	.	.	.	24cc#\	.
.	.	.	.	24a#X\JJ	.
=67	=67	=67	=67	=67	=67
!LO:MO:mod=!null:null	!	!	!	!LO:MO:mod=!null:null	!
!LO:TX:b:t=I	!	!	!	!LO:TX:b:t=I	!
4.r;	.	4.r;	.	4.r;	.
!	!	!	!	!LO:LB:g=original	!
=68	=68	=68	=68	=68	=68
!	!LO:MO:mod=!null:null	!	!	!	!
*	*	*	*	*xywh-#18:409,4295,3430,343	*
4.BB/	pp	8r	.	16.b\LL	p
.	.	.	.	32dd#\K	.
.	.	(8d#/L	.	16.f#\	.
.	.	.	.	32dd#\K	.
.	.	8f#/J)	.	16.b\	.
.	.	.	.	32dd#\JJk	.
=69	=69	=69	=69	=69	=69
4AA#X/	.	8r	.	16.cc#\LL	.
.	.	.	.	32ee\K	.
.	.	(8c#/L	.	16.f#\	.
.	.	.	.	32ee\K	.
8AA#/	.	8f#/J)	.	16.dd#\	.
.	.	.	.	32cc#\JJk	.
=70	=70	=70	=70	=70	=70
4BB/	.	8r	.	16.b\LL	.
.	.	.	.	32dd#\K	.
.	.	(8d#/L	.	16.f#\	.
.	.	.	.	32dd#\K	.
8BB/	.	8f#/J)	.	16.b\	.
.	.	.	.	32b\JJk	.
=71	=71	=71	=71	=71	=71
8r	.	16e/LL	.	16.cc#/LL	.
.	.	16c#/	.	.	.
.	.	.	.	32a#X/JJk	.
!LO:TX:t=P:problem:mixed beam	!	!	!	!	!
8FF#/L	.	16A#X/	.	4f#/	.
.	.	16c#/	.	.	.
8F#\J	.	16e/	.	.	.
.	.	16c#/JJ	.	.	.
!	!	!LO:LB:g=original	!	!	!
=72	=72	=72	=72	=72	=72
*	*	*xywh-#48:575,4601,3459,463	*	*	*
4.BB/	.	8.r	.	16.b\LL	.
.	.	.	.	32ddn\K	.
.	.	.	.	16.f#\	.
.	.	16bb\	.	.	.
.	.	.	.	32dd\K	.
.	.	8bbT\	.	16.b\	.
.	.	.	.	32dd\JJk	.
=73	=73	=73	=73	=73	=73
4GGn/	.	8.r	.	16.b\LL	.
.	.	.	.	32ddn\K	.
.	.	.	.	16.gn\	.
.	.	16bb\	.	.	.
.	.	.	.	32dd\K	.
8Gn\	f	8bbT\	.	16.b\	.
.	.	.	.	32dd\JJk	.
=74	=74	=74	=74	=74	=74
4.F#\	.	8.r	.	16.ccn\LL	.
!LO:LB:g=original	!	!	!	!	!
.	.	.	.	32ddn\K	.
.	.	.	.	16.a\	.
.	.	16aa\	.	.	.
.	.	.	.	32dd\K	.
.	.	8aaT\	.	16.cc\	.
.	.	.	.	32dd\JJk	.
=75	=75	=75	=75	=75	=75
*xywh-#69:461,2869,3422,320	*	*	*	*	*
4.Dn\	.	8.r	.	16.ccn\LL	.
.	.	.	.	32ddn\K	.
.	.	.	.	16.a\	.
.	.	16ff#\	.	.	.
.	.	.	.	32dd\K	.
.	.	8ff#T\	.	16.cc\	.
.	.	.	.	32dd\JJk	.
!	!	!	!	!LO:LB:g=original	!
=76	=76	=76	=76	=76	=76
*	*	*	*	*xywh-#18:392,4596,3486,410	*
4GGn/	.	4ggn 4b\	.	16.b\LL	.
.	.	.	.	32ddn\K	.
.	.	.	.	16.gg#\	.
.	.	.	.	32dd\K	.
8r	.	8r	.	16.bb\	.
.	.	.	.	32gg#\JJk	.
=77	=77	=77	=77	=77	=77
8Gn\L	.	8gn\L	f	16.ggn\LL	.
.	.	.	.	32bb\K	.
!	!	!	!	!LO:SIC:s=16.dd\:v	!
8Dn\	.	8b\	.	16.dd#\	.
!	!	!	!	!LO:SIC:s=32gg\K:v	!
.	.	.	.	32ggn\K	.
8BB\J	.	8ddn\J	.	16.b\	.
!	!	!	!	!LO:SIC:s=32ddny\JJk:v	!
.	.	.	.	32ddn\JJk	.
=78	=78	=78	=78	=78	=78
8GGn/L	.	(8ggn\L	.	16.gn/LL	.
.	.	.	.	32b/K	.
8FF#/	.	8bb\	.	16.f#/	.
.	.	.	.	32b/K	.
8EE#X/J	.	8ddd#\J)	.	16.e#X/	.
.	.	.	.	32b/JJk	.
=79	=79	=79	=79	=79	=79
8GGn/L	.	8r	.	16.gn/LL	.
.	.	.	.	32b/K	.
8FF#/	.	(8bb\L	.	16.f#/	.
.	.	.	.	32b/K	.
8EE#X/J	.	8ddd#\J)	.	16.e#X/	.
.	.	.	.	32b/JJk	.
=80	=80	=80	=80	=80	=80
4FF#/	.	4ff#\	.	24f#\LL	.
.	.	.	.	24b\	.
.	.	.	.	24dd#X\JJ	.
.	.	.	.	24ff#\LL	.
.	.	.	.	24dd#\	.
.	.	.	.	24b\JJ	.
8r	.	8r	.	24bb\LL	.
.	.	.	.	24ff#\	.
.	.	.	.	24dd#\JJ	.
=81	=81	=81	=81	=81	=81
4F#\	.	4d#X/	.	24ff#\LL	.
.	.	.	.	24dd#\	.
.	.	.	.	24b\JJ	.
.	.	.	.	24bb\LL	.
.	.	.	.	24ff#\	.
.	.	.	.	24dd#\JJ	.
8r	.	8r	.	24ff#\LL	.
!	!	!LO:PB:g=original	!	!	!
.	.	.	.	24dd#\	.
.	.	.	.	24b\JJ	.
!	!	!	!	!LO:PB:g=original	!
=82	=82	=82	=82	=82	=82
*	*	*xywh-#49:532,524,3320,467	*	*xywh-#19:339,602,3632,408	*
8F#\L	.	16r	.	[4.cc#T\	.
.	.	16b\LL	.	.	.
8F#\	.	16b\	.	.	.
.	.	16b\	.	.	.
8F#\J	.	16b\	.	.	.
.	.	16b\JJ	.	.	.
=83	=83	=83	=83	=83	=83
!	!LO:MO:mod=cresc.	!	!	!	!
!	!LO:HP:t=cres	!	!	!LO:SIC:s=4.cc#\]:v	!
8FF#/L	<	16r	.	4.cc#T\]	.
!	!	!	!LO:MO:mod=!null:null	!	!
!	!	!	!LO:DY:t=rinf	!	!
.	.	16a#X/LL	rfz	.	.
8FF#/	.	16a#/	.	.	.
.	.	16a#/	.	.	.
8FF#/J	.	16a#/	.	.	.
.	.	16a#/JJ	.	.	.
=84	=84	=84	=84	=84	=84
8BB/L	.	(16d#/LL	.	8.b\L	.
.	.	16f#/	.	.	.
8BB/	.	16d#/	.	.	.
.	.	16f#/	.	(16dd#X\L	.
8BB/J	.	16d#/	.	16ff#\	.
.	.	16f#/JJ)	.	16dd#\JJ)	.
=85	=85	=85	=85	=85	=85
!LO:TX:t=P:problem:mixed beam	!	!	!	!	!
8AA#X/L	.	(16e/LL	.	16.ee/LL	.
.	.	16f#/	.	.	.
.	.	.	.	32cc#/K	.
8FF#/	.	16e/	.	16.a#X/	.
.	.	16f#/	.	.	.
.	.	.	.	32f#X/K	.
8F#\J	.	16e/	.	16.g#/	.
.	.	16f#/JJ)	.	.	.
.	.	.	.	32a#/JJk	.
=86	=86	=86	=86	=86	=86
!	!LO:DY:t= :mod=%s	!	!	!	!
!	!LO:MO:mod=!LO&colon;DY&colon;ed=brack	!	!	!	!
!	!null	!	!	!	!
8BB/L	p	(16d#/LL	p	8.b\L	.
.	.	16f#/	.	.	.
8BB/	.	16d#/	.	.	.
.	.	16f#/	.	(16dd#\L	.
8BB/J	.	16d#/	.	16ff#\	.
.	.	16f#/JJ)	.	16dd#\JJ)	.
=87	=87	=87	=87	=87	=87
!LO:TX:t=P:problem:mixed beam	!	!	!	!	!
8AA#X/L	.	(16e/LL	.	16.ee/LL	.
.	.	16f#/	.	.	.
.	.	.	.	32cc#X/K	.
8FF#/	.	16e/	.	16.a#X/	.
.	.	16f#/	.	.	.
.	.	.	.	32f#/K	.
8F#\J	.	16e/	.	16.g#/	.
.	.	16f#/JJ)	.	.	.
.	.	.	.	32a#/JJk	.
=88	=88	=88	=88	=88	=88
4BB/	.	4f# 4d#/	.	8.b\L	.
.	.	.	.	(16dd#\L	.
8r	.	8r	.	16ff#\	.
!	!	!LO:LB:g=original	!	!	!
.	.	.	.	16dd#\JJ)	.
=89	=89	=89	=89	=89	=89
*	*	*xywh-#49:513,954,3354,362	*	*	*
4BB/	.	4f# 4d#/	.	8.b\L	.
.	.	.	.	16dd#\L	.
8r	.	8r	.	16ff#\	.
.	.	.	.	16dd#\JJ	.
=90	=90	=90	=90	=90	=90
4B\	.	4a 4f#/	.	8.b\L	.
.	.	.	.	8qdd#/	.
.	.	.	.	16ff#\L	.
8r	.	8r	.	16aa\	.
.	.	.	.	16ff#\JJ	.
=91	=91	=91	=91	=91	=91
4B\	.	4a 4f#/	.	8.dd#\L	.
.	.	.	.	16ff#\L	.
8r	.	8r	.	16aa\	.
.	.	.	.	16ff#\JJ	.
!LO:LB:g=original	!	!	!	!LO:LB:g=original	!
=92	=92	=92	=92	=92	=92
*xywh-#69:446,3169,3422,320	*	*	*	*xywh-#19:388,980,3485,365	*
4.BB/	.	4.a [4.f#/	.	24aa\LL	.
.	.	.	.	24ff#\	.
.	.	.	.	24dd#\JJ	.
.	.	.	.	24b\LL	.
.	.	.	.	24dd#\	.
.	.	.	.	24ff#\JJ	.
.	.	.	.	24aa\LL	.
.	.	.	.	24ff#\	.
.	.	.	.	24dd#\JJ	.
=93	=93	=93	=93	=93	=93
4.Cn/	.	4.a 4.f#/_	.	24aa\LL	.
.	.	.	.	24ff#\	.
.	.	.	.	24dd#\JJ	.
.	.	.	.	24ccn\LL	.
.	.	.	.	24dd#\	.
.	.	.	.	24ff#\JJ	.
.	.	.	.	24aa\LL	.
.	.	.	.	24ff#\	.
.	.	.	.	24dd#\JJ	.
=94	=94	=94	=94	=94	=94
4BB/	.	4a 4f#/]	.	(24ff#\LL	.
.	.	.	.	24aa\)	.
.	.	.	.	24ff#`\JJ	.
.	.	.	.	(24ee\LL	.
.	.	.	.	24gg#\)	.
.	.	.	.	24ee`\JJ	.
8r	.	8r	.	(24dd#\LL	.
.	.	.	.	24ff#\)	.
.	.	.	.	24dd#`\JJ	.
=95	=95	=95	=95	=95	=95
!LO:MO:mod=!null:null	!	!LO:MO:mod=!null:null	!	!	!
!LO:TX:a:t=I	!	!LO:TX:a:t=I	!	!	!
4.r	.	4.r	.	(24cc#\LL	>
.	.	.	.	24ee\)	.
.	.	.	.	24cc#`\JJ	.
.	.	.	.	(24b\LL	.
.	.	.	.	24dd#\)	.
.	.	.	.	24b`\JJ	.
.	.	.	.	(24a\LL	.
.	.	.	.	24cc#\)	.
.	.	.	.	24a`\JJ	]]
=96	=96	=96	=96	=96	=96
*	*	*	*	*^	*
[4.EE/	p	8ee\L	.	8g#`/L	4.B\	.
.	.	16ee\L	.	(16g#/L	.	.
.	.	16dd#X\	.	16f#/)	.	.
.	.	16ee\	.	16g#`/	.	.
.	.	16ff#\JJ	.	16a`/JJ	.	.
=97	=97	=97	=97	=97	=97	=97
4.EE/_	.	8gg#\L	.	8b`/L	4.B\	.
.	.	8gg#\	.	(16b/L	.	.
.	.	.	.	16a#X/)	.	.
.	.	8ee\J	.	16b`/	.	.
.	.	.	.	16g#`/JJ	.	.
=98	=98	=98	=98	=98	=98	=98
4.EE/_	.	8ff#\L	.	8an`/L	4.B\	.
.	.	8ff#\	.	(16a/L	.	.
.	.	.	.	16g#/)	.	.
.	.	8dd#\J	.	16a`/	.	.
.	.	.	.	16f#`/JJ	.	.
!	!	!	!	!LO:LB:g=original	!	!
=99	=99	=99	=99	=99	=99	=99
*	*	*	*	*xywh-#19:424,1245,3356,355	*	*
4.EE/_	.	16ee\LL	.	(16g#/LL	4.B\	.
.	.	16gg#\JJ	.	16b/JJ)	.	.
!	!	!	!	!	!	!LO:MO:mod=!null:null
!	!	!	!	!	!	!LO:DY:t=rinf
.	.	4dd#\	.	4f#/	.	rfz
=100	=100	=100	=100	=100	=100	=100
4.EE/_	.	8ee\L	.	8g#`/L	4.B\	.
.	.	16ee\L	.	(16g#/L	.	.
.	.	16dd#\	.	16f#/)	.	.
.	.	16ee\	.	16g#`/	.	.
.	.	16ff#\JJ	.	16a`/JJ	.	.
=101	=101	=101	=101	=101	=101	=101
4.EE/_	.	8gg#\L	.	8b`/L	4.B\	.
.	.	8gg#\	.	(16b/L	.	.
.	.	.	.	16a#X/)	.	.
.	.	8ee\J	.	16b`/	.	.
!	!	!LO:LB:g=original	!	!	!	!
.	.	.	.	16g#`/JJ	.	.
=102	=102	=102	=102	=102	=102	=102
*	*	*xywh-#49:520,1301,3338,350	*	*	*	*
4.EE/_	.	8ff#\L	.	8an`/L	4.B\	.
.	.	8ff#\	.	(16a/L	.	.
.	.	.	.	16g#/)	.	.
.	.	8dd#\J	.	16a`/	.	.
.	.	.	.	16f#`/JJ	.	.
=103	=103	=103	=103	=103	=103	=103
8EE/]	.	8b\	.	(16e/LL	4.B\	.
.	.	.	.	16g#/JJ)	.	.
!	!	!	!	!	!	!LO:MO:mod=!null:null
!	!	!	!	!	!	!LO:DY:t=rinf
4EE/	.	4b\	.	4e/	.	rfz
*	*	*	*	*v	*v	*
=104	=104	=104	=104	=104	=104
4BB/	.	4f# 4B/	.	(16dd#\LL	.
.	.	.	.	16ff#\)	.
.	.	.	.	(16bb\	.
.	.	.	.	16aa\)	.
8BB/	.	8a 8B/	.	16gg#`\	.
.	.	.	.	16ff#`\JJ	.
!	!	!	!	!LO:LB:g=original	!
=105	=105	=105	=105	=105	=105
*	*	*^	*	*	*
!	!	!	!	!	!LO:SIC:s=8gg#`\L:v	!
*	*	*	*xywh-#49:520,1301,3338,350	*	*	*
4E\	.	4g#/	4.B\	.	8gg#\L	.
.	.	.	.	.	(16bb\L	.
.	.	.	.	.	16aa#X\)	.
8EE/	.	8g#/	.	.	16bb`\	.
.	.	.	.	.	16gg#`\JJ	.
=106	=106	=106	=106	=106	=106	=106
4BB/	.	4a/	4.B\	.	8ff#`\L	.
.	.	.	.	.	(16bb\L	.
.	.	.	.	.	16aan\)	.
8BB/	.	8a/	.	.	16gg#`\	.
.	.	.	.	.	16ff#`\JJ	.
=107	=107	=107	=107	=107	=107	=107
8E\L	.	8g#/	4.B\	.	(16gg#\LL	.
.	.	.	.	.	16bb\JJ)	.
!	!	!	!	!	!	!LO:MO:mod=!null:null
!	!	!	!	!	!	!LO:DY:t=rinf
8D#\	.	4a/	.	.	4ff# 4b\	rfz
8BB\J	.	.	.	.	.	.
*	*	*v	*v	*	*	*
=108	=108	=108	=108	=108	=108
!LO:TX:t=P:problem:mixed beam	!	!	!	!	!
8EE/L	.	16e/LL	.	8gg#`\L	.
.	.	16B/	.	.	.
8E\	.	16e/	.	(16gg#\L	.
.	.	16B/	.	16ff#\)	.
8E\J	.	16e/	.	16gg#`\	.
.	.	16B/JJ	.	16aa`\JJ	.
!	!	!	!	!LO:LB:g=original	!
=109	=109	=109	=109	=109	=109
*	*	*	*	*xywh-#19:433,1524,3360,355	*
8E\L	.	16g#/LL	.	8bb`\L	.
.	.	16B/	.	.	.
8E\	.	16g#/	.	(16bb\L	.
.	.	16B/	.	16aa#X\)	.
8E\J	.	16g#/	.	16bb`\	.
.	.	16B/JJ	.	16gg#`\JJ	.
=110	=110	=110	=110	=110	=110
8BB/L	.	16f#/LL	.	8aan`\L	.
.	.	16B/	.	.	.
8D#/	.	16f#/	.	(16aa\L	.
.	.	16B/	.	16gg#\)	.
8BB/J	.	16f#/	.	16aa`\	.
.	.	16B/JJ	.	16ff#`\JJ	.
=111	=111	=111	=111	=111	=111
8E/L	.	8g# 8B/	.	(16gg#\LL	.
.	.	.	.	16bb\JJ)	.
!	!	!	!	!	!LO:MO:mod=!null:null
!	!	!	!	!	!LO:DY:t=rinf
8D#/	.	4a 4B/	.	4ff# 4b\	rfz
8BB/J	.	.	.	.	.
=112	=112	=112	=112	=112	=112
!	!LO:DY:t= :mod=%s	!	!	!	!
!	!LO:MO:mod=!LO&colon;DY&colon;ed=brack	!	!	!	!
!	!null	!	!	!	!
8E\L	p	8g#L 8B/	p	16.gg#\LL	.
.	.	.	.	32ff#\K	.
8E\	.	8g# 8B/	.	16.ee\	.
.	.	.	.	32ff#\K	.
8E\J	.	8g#J 8B/	.	16.gg#\	.
!LO:LB:g=original	!	!LO:LB:g=original	!	!	!
.	.	.	.	32aa\JJk	.
=113	=113	=113	=113	=113	=113
!LO:TX:t=P:problem:mixed beam	!	!	!	!	!
*xywh-#69:430,3414,3494,346	*	*xywh-#49:524,1569,3323,426	*	*	*
8E\L	.	8g#L 8B/	.	16.bb\LL	.
.	.	.	.	32ccc#\K	.
8EE/	.	8g# 8B/	.	16.ddd#\	.
.	.	.	.	32eee\K	.
8EE/J	.	8g#J 8B/	.	16.bb\	.
.	.	.	.	32gg#\JJk	.
=114	=114	=114	=114	=114	=114
!LO:TX:t=P:problem:mixed beam	!	!	!	!	!
.	.	.	.	8qqbb/	.
*	*	*^	*	*	*
*	*	*	*xywh-#49:524,1569,3323,426	*	*	*
8EE/L	.	8f#/L	4.B\	.	8aa\L	.
8E\	.	8f#/	.	.	16.aa\L	.
.	.	.	.	.	32gg#\K	.
8E\J	.	8a/J	.	.	16.aa\	.
.	.	.	.	.	32gg#\JJk	.
*	*	*v	*v	*	*	*
=115	=115	=115	=115	=115	=115
8E\	.	8g# 8B/	.	16.ee\LL	.
.	.	.	.	32gg#\JJk	.
!	!	!	!	!	!LO:MO:mod=!null:null
!	!	!	!	!	!LO:DY:t=rinf
4EE/	.	4g# 4B/	.	4e/	rfz
!LO:MO:mod=*kcancel:null	!	!	!	!	!
*null	*	*	*	*	*
=116||	=116||	=116||	=116||	=116||	=116||
*k[f#]	*	*k[f#]	*	*k[f#]	*
!	!	!	!	!LO:MO:mod=!null:null	!
!LO:MO:mod=!null:null	!	!LO:MO:mod=!null:null	!	!LO:TX:a:t=Mineur	!
!	!	!	!	!LO:MO:mod=!LO&colon;TX&colon;a&colon;i&colon;t=dolce	!
!LO:TX:a:t=Minore	!	!LO:TX:a:t=Mineur	!	!LO:TX:b:i:t=dol	!
4E\	.	4g/	.	(16b\LL	.
.	.	.	.	16ee\	.
.	.	.	.	16gg\	.
.	.	.	.	16ff#\	.
8BB/	.	8a 8f#/	.	16ee\	.
.	.	.	.	16dd#X\JJ)	.
!	!	!	!	!LO:LB:g=original	!
=117	=117	=117	=117	=117	=117
*	*	*	*	*xywh-#19:445,1821,3368,376	*
8E\L	.	(16g/LL	.	(16ee\LL	.
.	.	16b/	.	16gg\JJ)	.
8F#\	.	16d#X/	.	4b\	.
.	.	16f#/	.	.	.
8Gn\J	.	16e/	.	.	.
.	.	16g/JJ)	.	.	.
=118	=118	=118	=118	=118	=118
!LO:TX:t=P:problem:mixed beam	!	!	!	!	!
8A\L	.	(16f#/LL	.	(16a/LL	.
.	.	16e/	.	16g/	.
!	!	!LO:SIC:s=16d#X/):v	!	!	!
8B\	.	16d#X/	.	16f#/)	.
!	!	!LO:SIC:s=(16a/:v	!	!	!
.	.	16a/	.	(16cc/	.
8BB/J	.	16g/	.	16b/	.
.	.	16f#/JJ)	.	16a/JJ)	.
=119	=119	=119	=119	=119	=119
.	.	.	.	8qa/	.
8E\	.	(16e/LL	.	8g/L	.
.	.	16B/)	.	.	.
4EE/	.	(16A/	.	16f#/L	.
.	.	16B/)	.	16g/J	.
.	.	(16G/	.	8e/J	.
.	.	16B/JJ)	.	.	.
!	!	!LO:LB:g=original	!	!	!
=120	=120	=120	=120	=120	=120
*	*	*xywh-#49:509,1943,3350,369	*	*	*
8G\	.	8B/	.	16e/LL	.
.	.	.	.	16f#/J	.
.	.	.	.	8qqa/	.
!	!	!	!	!	!LO:MO:mod=!null:null
!	!	!	!	!	!LO:DY:t=rinf
4A\	.	4cn/	.	8g/	rfz
.	.	.	.	16f#/L	.
.	.	.	.	16d#X/JJ	.
=121	=121	=121	=121	=121	=121
8G\	.	8B/	.	16e/LL	.
.	.	.	.	16f#/J	.
.	.	.	.	8qqa/	.
!	!	!	!	!	!LO:MO:mod=!null:null
!	!	!	!	!	!LO:DY:t=rinf
4A\	.	4c/	.	8g/	rfz
.	.	.	.	16f#/L	.
.	.	.	.	16d#X/JJ	.
=122	=122	=122	=122	=122	=122
8E/L	.	8G/L	f	16e/LL	.
.	.	.	.	16f#/	.
8Cn/	.	8e/	.	16a/	.
.	.	.	.	16g/	.
8AA#X/J	.	8c#X/J	.	16f#/	.
.	.	.	.	16e/JJ	.
=123	=123	=123	=123	=123	=123
!LO:TX:t=P:problem:mixed beam	!	!	!	!	!
.	.	.	.	8qqa#X/	.
8BB/L	.	8d#X/L	.	8b\	.
16B\L	.	16d#/L	.	4B/	.
16cn\	.	16e/	.	.	.
16B\	.	16dn/	.	.	.
16An\JJ	.	16c/JJ	.	.	.
=124	=124	=124	=124	=124	=124
!	!	!	!	!	!LO:MO:mod=!null:null
!	!	!	!	!	!LO:DY:t=rinf
8Gn\L	.	(16B/LL	.	8.dn/L	rfz
.	.	16d/)	.	.	.
8G\	.	(16B/	.	.	.
.	.	16d/)	.	16g/L	.
8G\J	.	(16g/	.	16b/	.
.	.	16d/JJ)	.	16g/JJ	.
=125	=125	=125	=125	=125	=125
8A\L	.	(16c/LL	.	16g/LL	.
.	.	16d/)	.	16f#/JJ	.
8A\	.	(16c/	.	4f#/	.
!	!	!	!	!LO:LB:g=original	!
.	.	16d/)	.	.	.
8A\J	.	(16c/	.	.	.
!LO:LB:g=original	!	!	!	!	!
.	.	16d/JJ)	.	.	.
=126	=126	=126	=126	=126	=126
*xywh-#69:410,3745,3519,300	*	*	*	*xywh-#19:441,2104,3385,313	*
8D\L	.	(16f#/LL	.	8.ccn/L	.
.	.	16d/)	.	.	.
8D\	.	(16a/	.	.	.
.	.	16f#/)	.	16a/L	.
8D\J	.	(16d/	.	16f#/	.
.	.	16A/JJ)	.	16c/JJ	.
!	!	!LO:LB:g=original	!	!	!
=127	=127	=127	=127	=127	=127
*	*	*xywh-#49:512,2283,3327,320	*	*	*
8r	.	16G/LL	.	16c/LL	.
.	.	16B/	.	16B/JJ	.
!LO:TX:t=P:problem:mixed beam	!	!	!	!	!
8G\L	.	16d/	.	4B/	.
.	.	16B/	.	.	.
8GG/J	.	16G/	.	.	.
.	.	16B/JJ	.	.	.
=128	=128	=128	=128	=128	=128
!LO:MO:mod=!null:null	!	!	!	!	!
!LO:TX:a:t=2	!	!	!	!	!
4.r	.	16B/LL	.	8.dd/L	.
.	.	16d/	.	.	.
.	.	16g/	.	.	.
.	.	16d/	.	16b/L	.
.	.	16B/	.	16g/	.
.	.	16G/JJ	.	16fn/JJ	.
=129	=129	=129	=129	=129	=129
4.r	.	8.c/L	.	16fn/LL	.
.	.	.	.	16e/JJ	.
.	.	.	.	4e/	.
.	.	16e'/L	.	.	.
.	.	16c'/	.	.	.
.	.	16B'/JJ	.	.	.
=130	=130	=130	=130	=130	=130
4C/	.	16A/LL	.	(16e/LL	.
.	.	16e/	.	16a/)	.
.	.	16A/	.	(16cc/	.
.	.	16e/	.	16b/	.
8C#X/	.	16A/	.	16a/	.
.	.	16e/JJ	.	16g/JJ)	.
=131	=131	=131	=131	=131	=131
!LO:TX:t=P:problem:mixed beam	!	!	!	!	!
.	.	.	.	8qqa/	.
8D\L	.	(16A/LL	.	16g/LL	.
.	.	16d/)	.	16f#X/JJ	.
8DD/	.	(16A/	.	4f#/	.
.	.	16d/J)	.	.	.
8D\J	.	8e/J	.	.	.
=132	=132	=132	=132	=132	=132
8D\	.	8a 8f#/	.	24dd\LL	.
.	.	.	.	24ff#\	.
.	.	.	.	24aa\JJ	.
8r	.	8r	.	24ccc\LL	.
.	.	.	.	24aa\	.
.	.	.	.	24ff#\JJ	.
8D\	.	8a 8f#/	.	24dd\LL	.
.	.	.	.	24ee\	.
.	.	.	.	24cc\JJ	.
=133	=133	=133	=133	=133	=133
8G\	.	8b 8d/	.	24b\LL	.
.	.	.	.	24dd\	.
.	.	.	.	24gg\JJ	.
8r	.	8r	.	24bb\LL	.
.	.	.	.	24aa\	.
.	.	.	.	24gg\JJ	.
8GG/	.	8b 8d/	.	24ddd\LL	.
.	.	.	.	24bb\	.
.	.	.	.	24gg\JJ	.
=134	=134	=134	=134	=134	=134
8D\	.	8a 8f#/	.	24dd\LL	.
.	.	.	.	24ff#\	.
.	.	.	.	24aa\JJ	.
8r	.	8r	.	24ccc\LL	.
.	.	.	.	24aa\	.
.	.	.	.	24ff#\JJ	.
8D\	.	8a 8f#/	.	24dd\LL	.
!	!	!LO:LB:g=original	!	!	!
.	.	.	.	24ee\	.
.	.	.	.	24cc\JJ	.
!	!	!	!	!LO:LB:g=original	!
=135	=135	=135	=135	=135	=135
*	*	*xywh-#49:501,2558,3304,373	*	*xywh-#19:420,2367,3411,368	*
8G\	.	8b 8d/	.	24b\LL	.
.	.	.	.	24dd\	.
.	.	.	.	24ff#\JJ	.
8r	.	8r	.	24bb\LL	.
.	.	.	.	24aa\	.
.	.	.	.	24gg\JJ	.
8GG/	.	8b 8d/	.	24ddd\LL	.
.	.	.	.	24bb\	.
.	.	.	.	24gg\JJ	.
=136	=136	=136	=136	=136	=136
!	!	!	!	!	!LO:MO:mod=!null:null
!	!	!	!	!	!LO:DY:t=rinf
4.BB/	f	4.d 4.G/	f	24gg\LL	rfz
.	.	.	.	24bb\	.
.	.	.	.	24ddd\JJ	.
.	.	.	.	24fffn\LL	.
.	.	.	.	24ddd\	.
.	.	.	.	24bb\JJ	.
.	.	.	.	24gg\LL	.
.	.	.	.	24aa\	.
.	.	.	.	24ff#\JJ	.
=137	=137	=137	=137	=137	=137
4C/	.	8e 8G/	.	24ee\LL	.
.	.	.	.	24cc\	.
.	.	.	.	24ee\JJ	.
.	.	8r	.	24gg\LL	.
.	.	.	.	24ee\	.
.	.	.	.	24gg\JJ	.
8r	.	8r	.	24ccc\LL	.
.	.	.	.	24gg\	.
.	.	.	.	24ccc\JJ	.
=138	=138	=138	=138	=138	=138
4C/	.	8e/	.	24eee\LL	.
.	.	.	.	24ee\	.
.	.	.	.	24gg\JJ	.
.	.	8r	.	24ccc\LL	.
.	.	.	.	24eee\	.
.	.	.	.	24fff#\JJ	.
8r	.	8r	.	24ggg\LL	.
.	.	.	.	24fff#\	.
.	.	.	.	24eee\JJ	.
=139	=139	=139	=139	=139	=139
*	*	*	*	*8va	*
*	*	*	*	*^	*
!LO:MO:mod=!null:null	!	!LO:MO:mod=!null:null	!	!	!	!
!LO:TX:a:t=5	!	!LO:TX:a:t=5	!	!	!	!
*	*	*	*	*	*xywh-#19:420,2367,3411,368	*
4.r	.	4.r	.	16ddd/LL	4bb\	.
.	.	.	.	16ggg/	.	.
.	.	.	.	16ddd/	.	.
.	.	.	.	16ggg/	.	.
.	.	.	.	16ccc/	8aa\	.
.	.	.	.	16fff#/JJ	.	.
=140	=140	=140	=140	=140	=140	=140
4.r	.	4.r	.	16bb/LL	4gg\	.
.	.	.	.	16eee/	.	.
.	.	.	.	16bb/	.	.
.	.	.	.	16eee/	.	.
.	.	.	.	16aa/	8ff#\	.
.	.	.	.	16ddd/JJ	.	.
=141	=141	=141	=141	=141	=141	=141
4.r	.	4.r	.	16gg/LL	4ee\	.
.	.	.	.	16ccc/	.	.
.	.	.	.	16gg/	.	.
.	.	.	.	16ccc/	.	.
.	.	.	.	16ff#/	8dd\	.
.	.	.	.	16bb/JJ	.	.
!	!	!	!	!LO:LB:g=original	!	!
*	*	*	*	*v	*v	*
*	*	*	*	*X8va	*
=142	=142	=142	=142	=142	=142
*	*	*	*	*^	*
!	!	!	!	!LO:TX:a:i:t=loco	!	!
*	*	*	*	*xywh-#19:382,2625,3453,440	*xywh-#19:382,2625,3453,440	*
4.r	.	4.r	.	16ee/LL	4cc\	.
.	.	.	.	16aa/	.	.
.	.	.	.	16ee/	.	.
.	.	.	.	16aa/	.	.
.	.	.	.	16dd/	8b\	.
.	.	.	.	16gg/JJ	.	.
=143	=143	=143	=143	=143	=143	=143
4.r	.	4.r	.	16cc/LL	4a\	.
.	.	.	.	16ff#/	.	.
.	.	.	.	16cc/	.	.
.	.	.	.	16ff#/	.	.
.	.	.	.	16b/	8g\	.
.	.	.	.	16ee/JJ	.	.
=144	=144	=144	=144	=144	=144	=144
4D\	.	4.A/	.	16a/LL	4f#\	.
.	.	.	.	16dd/	.	.
.	.	.	.	16a/	.	.
.	.	.	.	16dd/	.	.
8E-X\	.	.	.	16a/	8g\	.
.	.	.	.	16cc#X/JJ	.	.
=145	=145	=145	=145	=145	=145	=145
4D\	.	4.A/	.	16a/LL	4f#\	.
.	.	.	.	16dd/	.	.
.	.	.	.	16a/	.	.
.	.	.	.	16dd/	.	.
8E-X\	.	.	.	16a/	8g\	.
.	.	.	.	16cc#X/JJ	.	.
*	*	*	*	*v	*v	*
=146	=146	=146	=146	=146	=146
4D\	.	4f# 4A/	.	16ddLL 16f#\	.
.	.	.	.	16ff# 16dd\	.
.	.	.	.	16aa 16ff#\	.
.	.	.	.	16gg 16ee\	.
8r	.	8r	.	16ff# 16dd\	.
.	.	.	.	16aaJJ 16ff#\	.
=147	=147	=147	=147	=147	=147
4D\	.	4f# 4A/	.	16cccLL 16aa\	.
.	.	.	.	16bb 16gg\	.
.	.	.	.	16aa 16ff#\	.
.	.	.	.	16bb 16gg\	.
8r	.	8r	.	16ccc 16aa\	.
.	.	.	.	16bbJJ 16gg\	.
=148	=148	=148	=148	=148	=148
!LO:MO:mod=!null:null	!	!LO:MO:mod=!null:null	!	!	!
!LO:TX:a:t=2	!	!LO:TX:a:t=2	!	!	!
4.r	.	4.r	.	16aaLL 16ff#\	>
.	.	.	.	16bb 16gg\	.
.	.	.	.	16ccc 16aa\	.
.	.	.	.	16bb 16gg\	.
.	.	.	.	16aa 16ff#\	.
.	.	.	.	16ggJJ 16ee\	.
=149	=149	=149	=149	=149	=149
4.r	.	4.r	.	16ff#LL 16dd\	.
!LO:LB:g=original	!	!	!	!	!
.	.	.	.	16gg 16ee\	.
.	.	.	.	16ff# 16dd\	.
.	.	.	.	16ee 16cc\	.
.	.	.	.	16dd 16b\	.
.	.	.	.	16ccJJ 16a\	]]
!	!	!	!	!LO:LB:g=original	!
=150	=150	=150	=150	=150	=150
!LO:TX:t=P:problem:mixed beam	!	!	!	!	!
!	!LO:DY:t= :mod=%s	!	!	!	!
!	!LO:MO:mod=!LO&colon;DY&colon;ed=brack	!	!	!	!
!	!null	!	!	!	!
*xywh-#69:430,4030,3529,300	*	*	*	*xywh-#19:424,2972,3411,338	*
8GG/L	p	8bb\L	p	8bL 8g/	.
8G\	.	16bb\L	.	16bL 16g/	.
.	.	16aa\	.	16a 16f#/	.
8G\J	.	16bb\	.	16b 16g/	.
.	.	16ccc\JJ	.	16ccJJ 16a/	.
=151	=151	=151	=151	=151	=151
!LO:TX:t=P:problem:mixed beam	!	!	!	!	!
8GG/L	.	8ddd\L	.	8ddL 8b\	.
8G\	.	8ddd\	.	16ddL 16b\	.
.	.	.	.	16cc 16a\	.
8G\J	.	8bb\J	.	16dd 16b\	.
.	.	.	.	16bJJ 16g\	.
=152	=152	=152	=152	=152	=152
!LO:TX:t=P:problem:mixed beam	!	!	!	!	!
8DD/L	.	8ccc\L	.	8ccnL 8a/	.
8D\	.	8ccc\	.	16ccL 16a/	.
.	.	.	.	16b 16g/	.
8D\J	.	8aa\J	.	16cc 16a/	.
.	.	.	.	16aJJ 16f#/	.
=153	=153	=153	=153	=153	=153
*	*	*xywh-#49:516,2864,3308,403	*	*	*
8G\L	.	16bb\LL	.	16bLL 16g\	.
.	.	16ddd\JJ	.	16ddJJ 16b\	.
8F#\	.	8aa\	.	4a 4d/	.
8D\J	.	8r	.	.	.
=154	=154	=154	=154	=154	=154
!LO:TX:t=P:problem:mixed beam	!	!	!	!	!
8GG/L	.	8bb\L	.	8bL 8g/	.
8G\	.	16bb\L	.	16bL 16g/	.
.	.	16aa\	.	16a 16f#/	.
8G\J	.	16bb\	.	16b 16g/	.
.	.	16ccc\JJ	.	16ccJJ 16a/	.
=155	=155	=155	=155	=155	=155
!LO:TX:t=P:problem:mixed beam	!	!	!	!	!
8GG/L	.	8ddd\L	.	8ddL 8b/	.
8G\	.	8ddd\	.	16ddL 16b/	.
.	.	.	.	16cc 16a/	.
8G\J	.	8bb\J	.	16dd 16b/	.
.	.	.	.	16bJJ 16g/	.
=156	=156	=156	=156	=156	=156
!LO:TX:t=P:problem:mixed beam	!	!	!	!	!
8DD/L	.	8ccc\L	.	8ccL 8a/	.
8D\	.	8ccc\	.	16ccL 16a/	.
.	.	.	.	16b 16g/	.
8D\J	.	8aa\J	.	16cc 16a/	.
.	.	.	.	16aJJ 16f#/	.
=157	=157	=157	=157	=157	=157
*	*	*	*	*^	*
!LO:TX:t=P:problem:mixed beam	!	!	!	!	!	!
*	*	*	*	*	*xywh-#19:424,2972,3411,338	*
8GG/L	.	16gg\LL	.	16g/LL	4.B\	.
.	.	16bb\JJ	.	16b/JJ	.	.
8G\	.	4gg\	.	4g/	.	.
!	!	!	!	!LO:LB:g=original	!	!
8GG/J	.	.	.	.	.	.
*	*	*	*	*v	*v	*
=158	=158	=158	=158	=158	=158
*	*	*	*	*xywh-#19:416,3226,3436,347	*
[4.D\	.	8a/	.	24dd\LL	.
.	.	.	.	24ff#\	.
.	.	.	.	24aa\JJ	.
.	.	4f#/	.	24ccc\LL	.
.	.	.	.	24aa\	.
.	.	.	.	24ff#\JJ	.
.	.	.	.	24dd\LL	.
.	.	.	.	24ee\	.
.	.	.	.	24cc\JJ	.
=159	=159	=159	=159	=159	=159
4.D\_	.	(16g/LL	.	24b\LL	.
.	.	.	.	24dd\	.
.	.	16b/JJ)	.	.	.
.	.	.	.	24gg\JJ	.
.	.	8dd\L	.	24bb\LL	.
.	.	.	.	24aa\	.
.	.	.	.	24gg\JJ	.
.	.	8b\J	.	24ddd\LL	.
.	.	.	.	24bb\	.
.	.	.	.	24gg\JJ	.
=160	=160	=160	=160	=160	=160
4.D\_	.	8a/	.	24dd\LL	.
.	.	.	.	24ff#\	.
.	.	.	.	24aa\JJ	.
.	.	4f#/	.	24ccc\LL	.
.	.	.	.	24aa\	.
.	.	.	.	24ff#\JJ	.
.	.	.	.	24dd\LL	.
.	.	.	.	24ee\	.
.	.	.	.	24cc\JJ	.
=161	=161	=161	=161	=161	=161
8D\]	.	(16g/LL	.	24b\LL	.
.	.	.	.	24dd\	.
.	.	16b/JJ)	.	.	.
.	.	.	.	24gg\JJ	.
!	!	!	!LO:MO:mod=!null:null	!	!
!	!	!	!LO:DY:b:i:t=rinf	!	!
!	!LO:MO:mod=rfz	!	!	!	!
4D\	fz	4a 4f#/	rfz	24dd\LL	.
.	.	.	.	24ff#\	.
.	.	.	.	24aa\JJ	.
.	.	.	.	24ccc\LL	.
.	.	.	.	24bb\	.
.	.	.	.	24aa\JJ	.
=162	=162	=162	=162	=162	=162
!LO:TX:t=P:problem:mixed beam	!	!	!	!	!
!	!	!	!LO:DY:t= :mod=%s	!	!
!	!	!	!LO:MO:mod=!LO&colon;DY&colon;ed=brack	!	!
!	!	!	!null	!	!
8GG/L	p	16d/LL	p	8bb`\L	.
.	.	16b/	.	.	.
8G\	.	16g/	.	(16bb\L	.
.	.	16b/	.	16aa\)	.
8G\J	.	16d/	.	16bb`\	.
.	.	16b/JJ	.	16ccc`\JJ	.
!	!	!LO:LB:g=original	!	!	!
=163	=163	=163	=163	=163	=163
!LO:TX:t=P:problem:mixed beam	!	!	!	!	!
*	*	*xywh-#49:497,3200,3312,384	*	*	*
8GG/L	.	(16B/LL	.	8ddd`\L	.
.	.	16d/	.	.	.
8G\	.	16g/	.	(16ddd\L	.
.	.	16d/	.	16ccc#X\)	.
8G\J	.	16B/	.	16ddd`\	.
.	.	16d/JJ)	.	16bb`\JJ	.
=164	=164	=164	=164	=164	=164
!LO:TX:t=P:problem:mixed beam	!	!	!	!	!
8GG/L	.	(16A/LL	.	8ccc`\L	.
.	.	16d/	.	.	.
8G\	.	16f#/	.	(16ccc\L	.
.	.	16d/	.	16bb\)	.
8G\J	.	16c/	.	16ccc`\	.
.	.	16d/JJ)	.	16aa`\JJ	.
!	!	!	!	!LO:LB:g=original	!
=165	=165	=165	=165	=165	=165
*	*	*	*	*xywh-#19:437,3522,3428,347	*
8GG/	.	16B/LL	.	16gg\LL	.
.	.	16d/JJ	.	16bb\JJ	.
4G\	fz	4g/	fz	4G/	.
=166	=166	=166	=166	=166	=166
!	!	!	!LO:DY:t= :mod=%s	!	!
!	!	!	!LO:MO:mod=!LO&colon;DY&colon;ed=brack	!	!
!	!	!	!null	!	!
4E\	p	4g/	p	(16b\LL	.
.	.	.	.	16ee\	.
.	.	.	.	16gg\	.
.	.	.	.	16ff#\	.
8BB/	.	8a 8f#/	.	16ee\	.
.	.	.	.	16dd#X\JJ)	.
=167	=167	=167	=167	=167	=167
8E\L	.	16g/LL	.	(16ee\LL	.
.	.	16b/	.	16gg\JJ)	.
8F#\	.	16d#X/	.	4b\	.
.	.	16f#/	.	.	.
8G\J	.	16e/	.	.	.
!LO:LB:g=original	!	!	!	!	!
.	.	16g/JJ	.	.	.
=168	=168	=168	=168	=168	=168
!LO:TX:t=P:problem:mixed beam	!	!	!	!	!
*xywh-#69:420,4300,3494,310	*	*	*	*	*
8A\L	.	16f#/LL	.	(16a/LL	.
.	.	16e/	.	16g/	.
8B\	.	16d#X/	.	16f#/)	.
.	.	16a/	.	(16cc/	.
8BB/J	.	16g/	.	16b/	.
.	.	16f#/JJ	.	16a/JJ)	.
=169	=169	=169	=169	=169	=169
.	.	.	.	8qqa/	.
8E/L	.	16e/LL	.	8g/L	.
.	.	16B/	.	.	.
8BB/	.	16A/	.	16f#/L	.
.	.	16B/	.	16g/J	.
8EE/J	.	16G/	.	8e/J	.
.	.	16B/JJ	.	.	.
!	!	!LO:LB:g=original	!	!	!
=170	=170	=170	=170	=170	=170
*	*	*xywh-#49:497,3524,3357,392	*	*	*
8G\	.	8B/	.	16e/LL	.
.	.	.	.	16f#/J	.
.	.	.	.	8qqa/	.
!	!	!	!	!	!LO:MO:mod=!null:null
!	!	!	!	!	!LO:DY:b:i:t=rinf
4A\	.	4cn/	.	8g/	rfz
.	.	.	.	16f#/L	.
.	.	.	.	16d#X/JJ	.
=171	=171	=171	=171	=171	=171
8G\	.	8B/	.	16e/LL	.
.	.	.	.	16f#/J	.
.	.	.	.	8qqa/	.
!	!	!	!	!	!LO:MO:mod=!null:null
!	!	!	!	!	!LO:DY:b:i:t=rinf
4A\	.	4c/	.	8g/	rfz
.	.	.	.	16f#/L	.
.	.	.	.	16d#X/JJ	.
=172	=172	=172	=172	=172	=172
4G\	.	4B/	.	16e/LL	.
.	.	.	.	16d#X/	.
.	.	.	.	16e/	.
.	.	.	.	16f#/	.
8E\	.	8r	.	16g/	.
.	.	.	.	16a#X/JJ	.
=173	=173	=173	=173	=173	=173
4D#X\	.	4f#/	.	24b\LL	.
.	.	.	.	24dd#X\	.
.	.	.	.	24ff#\JJ	.
.	.	.	.	24aa\LL	.
.	.	.	.	24ff#\	.
.	.	.	.	24dd#\JJ	.
8BB/	.	8a/	.	24b\LL	.
.	.	.	.	24dd#\	.
.	.	.	.	24ff#\JJ	.
!	!	!	!	!LO:LB:g=original	!
=174	=174	=174	=174	=174	=174
*	*	*	*	*xywh-#19:450,3823,3385,304	*
4E\	.	4g/	.	24ee\LL	.
.	.	.	.	24gg\	.
.	.	.	.	24ff#\JJ	.
.	.	.	.	8qqff#/	.
.	.	.	.	24ee\LL	.
.	.	.	.	24dd#X\	.
.	.	.	.	24ee\JJ	.
.	.	.	.	8qqff#/	.
8r	.	8r	.	24ee\LL	.
.	.	.	.	24dd#\	.
.	.	.	.	24ee\JJ	.
=175	=175	=175	=175	=175	=175
4D#X\	.	4f#/	.	24b\LL	.
.	.	.	.	24dd#X\	.
.	.	.	.	24ff#\JJ	.
.	.	.	.	24aa\LL	.
.	.	.	.	24ff#\	.
.	.	.	.	24dd#\JJ	.
8BB/	.	8a/	.	24b\LL	.
.	.	.	.	24dd#\	.
.	.	.	.	24ff#\JJ	.
=176	=176	=176	=176	=176	=176
4E\	.	4g/	.	24ee\LL	.
.	.	.	.	24gg\	.
.	.	.	.	24ff#\JJ	.
.	.	.	.	8qqff#/	.
.	.	.	.	24ee\LL	.
.	.	.	.	24dd#X\	.
.	.	.	.	24ee\JJ	.
.	.	.	.	8qqff#/	.
8r	.	8r	.	24ee\LL	.
.	.	.	.	24dd#\	.
.	.	.	.	24ee\JJ	.
=177	=177	=177	=177	=177	=177
4BB/	.	4.a [4.f#/	.	(24dd#X\LL	.
.	.	.	.	24aa\)	.
.	.	.	.	24ff#`\JJ	.
.	.	.	.	24dd#\LL	.
.	.	.	.	24aa\	.
.	.	.	.	24ff#\JJ	.
8Cn/	.	.	.	24dd#\LL	.
.	.	.	.	24aa\	.
.	.	.	.	24ff#\JJ	.
=178	=178	=178	=178	=178	=178
4BB/	.	4.a 4.f#/_	.	24dd#X\LL	.
.	.	.	.	24aa\	.
.	.	.	.	24ff#\JJ	.
.	.	.	.	24dd#\LL	.
.	.	.	.	24aa\	.
.	.	.	.	24ff#\JJ	.
8Cn/	.	.	.	24dd#\LL	.
.	.	.	.	24aa\	.
.	.	.	.	24ff#\JJ	.
=179	=179	=179	=179	=179	=179
4BB/	.	4.a 4.f#/]	.	24dd#X\LL	.
.	.	.	.	24b\	.
.	.	.	.	24cc#X\JJ	.
.	.	.	.	24dd#\LL	.
.	.	.	.	24ee\	.
.	.	.	.	24ff#\JJ	.
8r	.	.	.	24gg\LL	.
.	.	.	.	24aa#X\	.
.	.	.	.	24bb\JJ	.
!	!	!	!	!LO:LB:g=original	!
=180	=180	=180	=180	=180	=180
*	*	*	*	*8va	*
!LO:MO:mod=!null:null	!	!	!	!	!
!LO:TX:b:t=I	!	!	!	!	!
*	*	*	*	*xywh-#19:411,4047,3470,359	*
4.r;	.	4.r;	.	24ccc#X\LL	.
.	.	.	.	24ddd#X\	.
.	.	.	.	24eee\JJ	.
.	.	.	.	24fff#\LL	.
.	.	.	.	24ggg\	.
.	.	.	.	24aaa#X\JJ	.
.	.	.	.	16bbb\	.
.	.	.	.	16r;	.
*	*	*	*	*X8va	*
=181||	=181||	=181||	=181||	=181||	=181||
*k[f#c#g#d#]	*	*k[f#c#g#d#]	*	*k[f#c#g#d#]	*
!	!	!	!	!LO:MO:mod=!null:null	!
!LO:MO:mod=!null:null	!	!LO:MO:mod=!null:null	!	!LO:TX:a:t=Majeur	!
!	!	!	!	!LO:MO:mod=!LO&colon;TX&colon;a&colon;i&colon;t=dolce	!
!LO:TX:a:t=Majiore	!	!LO:TX:a:t=Majeur	!	!LO:TX:b:t=dol	!
!	!	!	!	!LO:SIC:s=8gg#`\L:v	!
4.EE/	.	4.g# 4.B/	.	8gg#\L	.
.	.	.	.	(16gg#\L	.
.	.	.	.	16ff#\)	.
.	.	.	.	16gg#`\	.
.	.	.	.	16aa`\JJ	.
=182	=182	=182	=182	=182	=182
4.EE/	.	4.g# 4.B/	.	8bb`\L	.
!	!	!LO:LB:g=original	!	!	!
.	.	.	.	(16bb\L	.
.	.	.	.	16aa#X\)	.
.	.	.	.	16bb`\	.
.	.	.	.	16gg#`\JJ	.
=183	=183	=183	=183	=183	=183
*	*	*xywh-#49:508,3879,3331,369	*	*	*
4.EE/	.	4f# 4B/	.	8aan`\L	.
.	.	.	.	(16aa\L	.
.	.	.	.	16gg#\)	.
.	.	8a 8B/	.	16aa`\	.
.	.	.	.	16ff#`\JJ	.
=184	=184	=184	=184	=184	=184
4.EE/	.	(8g# 8B/	.	16gg#\LL	.
.	.	.	.	16bb\JJ	.
!	!	!	!	!	!LO:MO:mod=!null:null
!	!	!	!	!	!LO:DY:b:i:t=rinf
.	.	4a 4B/)	.	4ff# 4b\	rfz
=185	=185	=185	=185	=185	=185
!LO:TX:t=P:problem:mixed beam	!	!	!	!	!
8EE/L	.	16e/LL	.	8gg#`\L	.
.	.	16B/	.	.	.
!	!	!	!	!LO:SIC:s=(16gg#\L:v	!
8E\	.	16e/	.	16gg#`\L	.
!	!	!	!	!LO:SIC:s=16ff#\):v	!
.	.	16B/	.	(16ff#\	.
!	!	!	!	!LO:SIC:s=16gg#`\:v	!
8E\J	.	16e/	.	16gg#\)	.
.	.	16B/JJ	.	16aa`\JJ	.
=186	=186	=186	=186	=186	=186
!LO:TX:t=P:problem:mixed beam	!	!	!	!	!
8EE/L	.	16g#/LL	.	8bb`\L	.
.	.	16B/	.	.	.
8E\	.	16g#/	.	(16bb\L	.
.	.	16B/	.	16aa#X\)	.
8E\J	.	16g#/	.	16bb`\	.
.	.	16B/JJ	.	16gg#`\JJ	.
=187	=187	=187	=187	=187	=187
!LO:TX:t=P:problem:mixed beam	!	!	!	!	!
8EE/L	.	16f#/LL	.	8aan`\L	.
.	.	16B/	.	.	.
8E\	.	16f#/	.	(16aa\L	.
.	.	16B/	.	16gg#\)	.
8E\J	.	16f#/	.	16aa`\	.
.	.	16B/JJ	.	16ff#`\JJ	.
!LO:LB:g=original	!	!	!	!LO:LB:g=original	!
=188	=188	=188	=188	=188	=188
!	!	!	!	!LO:SIC:s=(16ee\LL:v	!
*xywh-#69:433,4593,3499,432	*	*	*	*xywh-#19:428,4377,3444,325	*
8EE/	.	(16g#/LL	.	16ee\LL	.
!	!	!	!	!LO:SIC:s=16gg#\)JJ:v	!
.	.	16b/JJ)	.	16gg#\JJ	.
!	!	!	!	!	!LO:MO:mod=!null:null
!	!	!	!	!	!LO:DY:b:i:t=rinf
4E\	.	4g#/	.	4e/	rfz
=189	=189	=189	=189	=189	=189
4BB/	.	4a 4f#/	.	(16dd#\LL	.
.	.	.	.	16ff#\)	.
.	.	.	.	(16bb\	.
.	.	.	.	16aa\)	.
8D#X\	.	8f# 8B/	.	16gg#`\	.
.	.	.	.	16ff#`\JJ	.
=190	=190	=190	=190	=190	=190
!	!	!	!	!LO:SIC:s=8gg#`\L:v	!
4E\	.	4e 4B/	.	8gg#\L	.
.	.	.	.	(16bb\L	.
.	.	.	.	16aa#X\)	.
8EE/	.	8g# 8B/	.	16bb`\	.
.	.	.	.	16gg#`\JJ	.
=191	=191	=191	=191	=191	=191
4BB/	.	4a 4B/	.	8ff#`\L	.
.	.	.	.	(16bb\L	.
.	.	.	.	16aan\)	.
8D#X\	.	8a 8B/	.	16gg#`\	.
.	.	.	.	16ff#`\JJ	.
=192	=192	=192	=192	=192	=192
!LO:TX:t=P:problem:mixed beam	!	!LO:SIC:s=(16g#/LL:v	!	!	!
8E\L	.	16g#/LL	.	(16gg#\LL	.
!	!	!LO:SIC:s=16e/JJ):v	!	!	!
.	.	16e/JJ	.	16bb\JJ)	.
8B\	.	4d#/	.	4ff#\	.
!	!	!LO:LB:g=original	!	!	!
8BB/J	.	.	.	.	.
=193	=193	=193	=193	=193	=193
!LO:TX:t=P:problem:mixed beam	!	!	!	!	!
*	*	*xywh-#49:511,4219,3354,354	*	*	*
8EE/L	.	16e/LL	.	8gg#`\L	.
.	.	16B/	.	.	.
8E\	.	16e/	.	(16gg#\L	.
.	.	16B/	.	16ff#\)	.
8E\J	.	16e/	.	16gg#`\	.
.	.	16B/JJ	.	16aa`\JJ	.
=194	=194	=194	=194	=194	=194
!LO:TX:t=P:problem:mixed beam	!	!	!	!	!
8EE/L	.	16g#/LL	.	8bb`\L	.
.	.	16B/	.	.	.
8E\	.	16g#/	.	(16bb\L	.
.	.	16B/	.	16aa#X\)	.
8E\J	.	16g#/	.	16bb`\	.
.	.	16B/JJ	.	16gg#`\JJ	.
=195	=195	=195	=195	=195	=195
!LO:TX:t=P:problem:mixed beam	!	!	!	!	!
8BB/L	.	16f#/LL	.	8aan`\L	.
.	.	16B/	.	.	.
8B\	.	16f#/	.	(16aa\L	.
.	.	16B/	.	16gg#\)	.
8B\J	.	16f#/	.	16aa`\	.
.	.	16B/JJ	.	16ff#`\JJ	.
=196	=196	=196	=196	=196	=196
4.E\	.	8g#/L	.	16.ee\LL	.
.	.	.	.	32gg#\K	.
.	.	8b/	.	16.b\	.
.	.	.	.	32gg#\K	.
.	.	8g#/J	.	16.ee\	.
.	.	.	.	32gg#\JJk	.
!	!	!	!	!LO:LB:g=original	!
=197	=197	=197	=197	=197	=197
*	*	*	*	*xywh-#19:411,4635,3453,372	*
4BB/	.	8.a/L	.	16.ff#\LL	.
.	.	.	.	32aa\K	.
.	.	.	.	16.b\	.
.	.	16f#/L	.	.	.
.	.	.	.	32aa\K	.
8D#X\	.	16g#/	.	16.gg#\	.
.	.	16a/JJ	.	.	.
.	.	.	.	32ff#\JJk	.
=198	=198	=198	=198	=198	=198
4.E\	.	8g#/L	.	16.ee\LL	.
.	.	.	.	32gg#\K	.
.	.	8b/	.	16.b\	.
.	.	.	.	32gg#\K	.
.	.	8g#/J	.	16.ee\	.
.	.	.	.	32gg#\JJk	.
=199	=199	=199	=199	=199	=199
4BB/	.	8.a/L	.	16.ff#\LL	.
.	.	.	.	32aa\K	.
.	.	.	.	16.b\	.
.	.	16f#/L	.	.	.
.	.	.	.	32aa\K	.
8D#X\	.	16g#/	.	16.gg#\	.
.	.	16a/JJ	.	.	.
.	.	.	.	32ff#\JJk	.
=200	=200	=200	=200	=200	=200
!	!LO:DY:t= :mod=%s	!	!LO:DY:t= :mod=%s	!	!
!	!LO:MO:mod=!LO&colon;DY&colon;ed=	!	!LO:MO:mod=!LO&colon;DY&colon;ed=brack	!	!
!	!null	!	!null	!	!
[4.E\	p	4.b 4.g#/	p	16.ee\LL	p
.	.	.	.	32gg#\K	.
.	.	.	.	16.bb\	.
.	.	.	.	32gg#\K	.
.	.	.	.	16.bb\	.
.	.	.	.	32gg#\JJk	.
=201	=201	=201	=201	=201	=201
!	!LO:MO:mod=!null:null	!	!	!	!
4.E\_	p	4.b 4.g#/	.	16.ee\LL	.
!	!	!LO:LB:g=original	!	!	!
.	.	.	.	32gg#\K	.
.	.	.	.	16.bb\	.
.	.	.	.	32gg#\K	.
.	.	.	.	16.bb\	.
.	.	.	.	32gg#\JJk	.
=202	=202	=202	=202	=202	=202
*	*	*xywh-#49:500,4505,3335,479	*	*	*
4.E\_	.	(16e/LL	.	8.ee\L	.
.	.	16g#/	.	.	.
.	.	16b/	.	.	.
.	.	16g#/	.	16b\K	.
.	.	16b/	.	8gg#\J	.
.	.	16g#/JJ)	.	.	.
=203	=203	=203	=203	=203	=203
4.E\_	.	(16e/LL	.	8.ee\L	.
.	.	16g#/	.	.	.
.	.	16b/	.	.	.
.	.	16g#/	.	16b\K	.
.	.	16b/	.	8gg#\J	.
.	.	16g#/JJ)	.	.	.
=204	=204	=204	=204	=204	=204
!	!LO:DY:t= :mod=%s	!	!LO:DY:t= :mod=%s	!	!
!	!LO:MO:mod=!LO&colon;DY&colon;ed=brack	!	!LO:MO:mod=!LO&colon;DY&colon;ed=brack	!	!
!	!null	!	!null	!	!
4.E\_	pp	8.e/L	pp	4.ee\	pp
.	.	16B/K	.	.	.
.	.	8g#/J	.	.	.
=205	=205	=205	=205	=205	=205
4.E\_	.	8.e/L	.	4.gg#\	.
.	.	16B/K	.	.	.
.	.	8g#/J	.	.	.
=206	=206	=206	=206	=206	=206
4.E\_	.	16e\LL	.	4.bb\	.
.	.	16g#\	.	.	.
.	.	16b\	.	.	.
.	.	16ee\	.	.	.
.	.	16gg#\	.	.	.
.	.	16ee\JJ	.	.	.
=207	=207	=207	=207	=207	=207
4.E\_	.	16bb\LL	.	4.eee\	.
.	.	16gg#\	.	.	.
.	.	16ee\	.	.	.
.	.	16b\	.	.	.
.	.	16g#\	.	.	.
.	.	16b\JJ	.	.	.
=208	=208	=208	=208	=208	=208
!	!	!LO:MO:mod=!LO&colon;TX&colon;a&colon;i&colon;t=ten.	!	!	!
!	!	!LO:TX:a:t=ten&colon;	!	!	!
4.E;\]	.	4b 4g#;/	.	4.eee;\	.
.	.	8r	.	.	.
==	==	==	==	==	==
*-	*-	*-	*-	*-	*-
!!!system-decoration: [(s1,s2,s3)]
!!!filter-modern: tie -s | humtr -p | sic -sq | shed -e "s/LO:DY:(a|b|rj)/LO:dy:$1/L" | shed -e "s/TX(.*):t=P:/tx$1:t=P:/LG" | modori -m | autostem -r | shed -e "s/yy//" | shed -k -e "s/\(y([^y])/($1/" | shed -e "s/-//B" | shed -e "s/^(\d+[\/\\]right)/$1yy/I; s/^(\d+[\/\\]left)/$1yy/I" | shed -e "s/^(X?)rep$/$1REP/I" | shed -k -e "s/[<>]//g" | shed -e "s/^custos:/Xcustos:/I" | shed -k -e "s/:TUP:/:tup:/L" | shed -k -e "s/r[a-gA-G]+/r/D" | rid -lid
!!!ENC: Marta Opryszak
!!!END: 2022-05-22
!!!EED: Julita Ruszuk
!!!EEV: 2022-07-03
!!!EED-modern: Antoni Szymański
!!!END-modern: 2022-08-13
!!!ENC-iiif: Konrad Tyszka
!!!END-iiif: 2022-09-04
